X: 401
T: The Croppy Tailor
N:"Gaily"
N:"collected by J.O'Neill"
N:Irish title: an tailiur bear.ta
B:O'Neill's 401
Z:Transcribed by henrik.norbeck@mailbox.swipnet.se
M:3/4
L:1/8
K:A
A2 | (c2 d2 e2) | (e2 d2 e2) | (d2 c2) .A2 | A4 A2 |
c2 d2 e2 | e2 d2 c2 | g2 e2 c2 | d4 (cd) |
(e2 f2 g2) | (a2 c'2 a2) | g2 e2 d2 | c4 (cd) |
e2 d2 d2 | d2 e2 f2 | g6 | a4 ||
e2 | d3 c A2 | A6 | B3 A G2 | G6 |
c3 d e2 | d2 c2 B2 | ">"A2 ">"c2 ">"e2 | ">"a2 ">"e2 ">"d2 |
c3 A A2 | A6 | B3 A G2 | G6 |
c3 d e2 | d2 c2 B2 | A6 | A4 ||


